X:1
T:Buxtehude - Aria:  La Capricciosa in G Minor.
%%score { ( 1 4 ) | ( 2 3 ) }
L:1/8
Q:1/4=100
M:4/4
K:G
V:1 treble nm="Harpsichord" snm="Hch."
V:4 treble 
V:2 bass 
V:3 bass 
V:1
"^Partita 14"!f! z2 D/G/=F/G/ E2 z/ A/G/A/ | F2 z/ d/c/d/ B2 z/ F/G/A/ | %2
 B2 d/g/P=f/g/ e2 z/ e/Md/e/ | A2 z/ C/B,/A,/ z/ D/PF G2 :: %4
 B,/D/C/D/ z/ G/D/=F/ E/G/F/G/ E/c/G/B/ | A/B/G/A/ F/d/A/c/ BAPGA | B/G/B/Pc/ d2 z/ G/A/PB/ c2- | %7
 c/A/MB MA2 G4 :| %8
V:2
 z/ D/C/D/ B,2 z/ C/B,/C/ A,2 | z/ D/C/D/ B,MA, G,4 | G,2 B,2 C2 ^C2 | D2 z F, G,2- G,/PD,/G, :: %4
 z2 PB,2 C4- | CB,A,D z/ D/C/D/ B,/D/C/E/ | D2 B,2 C2 A,2 | D2- D>C B,C/PA,/ B,2 :| %8
V:3
 G, z z2 C, z z P^C, | D, z z PF, x4 | x8 | x2 D,2 z2 G,,2 :: G,4 z2 C,2 | D,4 G,4- | G,2 x6 | %7
 z2 D,2 G,2- G,G,, :| %8
V:4
 x8 | x4 z/ G/F/G/ D2 | z/ G/PF/G/- G2 z/ G/P^F/G/- G2 | z/ G/F/G/ x2 B,>A, B,2 :: x8 | x4 G x3 | %6
 x2 z/ G/=F/G/ E2 z/ A/G/A/ | F z/ G/- G/E/F z/ D/E/PC/ D2 :| %8

